X: 1
T: String Quartet in F Major opus 17 no 2 mvt 1
C: Franz Joseph Haydn
%%abc-version 2.0
%%abcx-abcm2ps-target-version 5.9.1 (29 Sep 2008)
%%abc-creator hum2abc beta
%%abcx-conversion-date 2021/02/14 14:38:21
%%abc-copyright Copyright (c) 1994, 2000 Center for Computer Assisted Research in the Humanities
%%abc-edited-by Frances Bennion
%%abcx-initial-encoding-date 1997/04/15
%%gracespace 0 6 6
%%humdrum-veritas 2942158936
%%humdrum-veritas-data 1282360648
%%linebreak <none>
%%barnumbers 0
L: 1/16
M: 4/4
N: Derived from op17n2-01.krn
Q: "Moderato"
%%staves [1 2 3 4]
V: 1
V: 2
V: 3 clef=alto
V: 4 clef=bass
K: F
[V:1]c12 f4 [I:setbarnb2]|
[V:2]A2A2 A2A2 A2A2 A2A2 |
[V:3]F2F2 F2F2 F2F2 F2F2 |
[V:4]F,2F,2 F,2F,2 F,2F,2 F,2F,2 |
[V:1]f2e2 e8 cc'3 |
[V:2]B16- |
[V:3]G16- |
[V:4]C,16 |
[V:1]c'bag fedc c2^c2 d3B |
[V:2]B12 B3 G|
[V:3]G12 G4 |
[V:4]E,12 E,4 |
[V:1]A2GF F4 z8 |
[V:2]F4 z2D2 C2B,A, G,2A,B, |
[V:3]C4 z2F,2 F,4 C,2E,2 |
[V:4]F,4 z2B,2 A,2G,F, E,2C,2 |
[V:1]c12- cag f|
[V:2]A,2A2 A2A2 A2A2 A2A2 |
[V:3]F,2F2 F2F2 F2F2 F2F2 |
[V:4]F,,2F,2 F,2F,2 F,2F,2 F,2F,2 |
[V:1]f2e2 e8- ebag |
[V:2]B4 BABA B8 |
[V:3]G4 G^FGF G6 E2 |
[V:4]C,8 C=B,CB, C4 |
[V:1]g2f2 f8- fc'ba |
[V:2]A4 A^GAG A8 |
[V:3]F4 FEFE F6 ^F2 |
[V:4]C8 C=B,CB, C4 |
[V:1]ag^fg4 <<b4 g/e/ c2B2 |
[V:2]B4 E8 E2G2 |
[V:3]G4 G8 G2C2 |
[V:4]C4 C_DCD C6 E,2 |
[V:1]A2GF F4 z6 b2 |
[V:2]F4 z2d2 c2BA G2E2 |
[V:3]C4 z2B2 A2GF E2G,2 |
[V:4]F,4 z8 z2C,2 |
[V:1]bagf f2z8 b2 |
[V:2]F4 z2d2 c2BA G2E2 |
[V:3]A,4 z2B2 A2GF E2G,2 |
[V:4]F,4 z8 z2C,2 |
[V:1]bagf f2z8 z2 |
[V:2]F4 z2d2 c2BA G2[^c2E2] |
[V:3]A,4 z2B2 A2GF E2[A,2E2] |
[V:4]F,4 z8 z2A,2 |
[V:1]a12 gfe d|
[V:2][D2d2]F2 F2F2 F2F2 F2F2 |
[V:3][F2A,2]D2 D2D2 D2D2 D2D2 |
[V:4]D,2D2 D2D2 D2D2 D2D2 |
[V:1]d2^c2 c4 cedf egfa |
[V:2]G16 |
[V:3]E16 |
[V:4]A,16- |
[V:1]g8- g2B,2 A,2g2 |
[V:2]^CEDF EGFA G6 E2 |
[V:3]A,2=B,2 ^C2D4 <E4 C2 |
[V:4]A,16 |
[V:1]f2ed d2z8 z2 |
[V:2]F4 z2A2 G2FE D2[=B2D2] |
[V:3]D4 z2F2 E2DC =B,2[F2G,2] |
[V:4]D,4 z8 z2G,2 |
[V:1]g12 fed c|
[V:2][E2c2]E2 E2E2 E2E2 E2E2 |
[V:3][G,2E2]C2 C2C2 C2C2 C2C2 |
[V:4]C,2C2 C2C2 C2C2 C2C2 |
[V:1]c2=B2 B8 f2ed |
[V:2]F16 |
[V:3]D16 |
[V:4]G,2G,2 G,2G,2 G,2G,2 G,2G,2 |
[V:1]d2c2 c4- cg^fg g2=fe |
[V:2]G16 |
[V:3]E16- |
[V:4]G,2G,2 G,2G,2 G,2G,2 G,2G,2 |
[V:1]d2c2 c'8 ^f4 |
[V:2]^F12 c4 |
[V:3]E4 D8 D4 |
[V:4]A,2A,2 A,2A,2 A,2A,2 A,2A,2 |
[V:1]g16- |
[V:2]=BGGG GGBG cGGG dGGG |
[V:3]D4 z2F2 E4 =B,4 |
[V:4]G,4 z12 |
[V:1]g16- |
[V:2]eGGG GG=BG cGGG dGGG |
[V:3]C4 z12 |
[V:4]z4 >F4 E4 =B,4 |
[V:1]g12 f4 |
[V:2]_eGGG GG=BG cGGG dGGG |
[V:3]z4 >F4 _E4 =B,4 |
[V:4]C4 z12 |
[V:1]_e16- |
[V:2]c16- |
[V:3]C16- |
[V:4]CG,G,G, G,_E,E,E, E,C,C,C, C,_A,,A,,A,, |
[V:1]e2_ed eded e4 C4 |
[V:2]c2^F2 F2F2 F8 |
[V:3]C2C2 C2C2 C8 |
[V:4]_A,,12 _A,4 |
[V:1]=B,=BDd FfGg B=bdd' c'bag |
[V:2]G2G2 G2G2 G2G2 G2G2 |
[V:3]D2=B,2 B,2B,2 =B2B2 B2B2 |
[V:4]G,2G,2 G,2G,2 F,2F,2 F,2F,2 |
[V:1]c'4 e'4 g'6 f'e' |
[V:2]CcEc GcEc CcEc GcEc |
[V:3]c4 z4 E4 z4 |
[V:4]E,4 z4 E,4 z4 |
[V:1]d'4 f'4 a'6 ^F2 |
[V:2]DcFc AcFc DcFc Ac^Fc |
[V:3]F4 z4 F4 z2^F2 |
[V:4]F,4 z4 F,4 z2^F,2 |
[V:1]G8 d8 |
[V:2]G2G2 G2FE D2F2 F2ED |
[V:3]G2E2 E2DC =B,2D2 D2CB, |
[V:4]G,4 z4 G,4 z4 |
[V:1]c2c2 =Bcdc g4 fedc |
[V:2]^F8 C8 |
[V:3]C8 E8 |
[V:4]A,8 G,8 |
[V:1]c2c2 =Bcdc g4 fedc |
[V:2]^F8 C8 |
[V:3]C8 E8 |
[V:4]A,8 G,8 |
[V:1]c2c2 =Bcdc c'4 z4 |
[V:2]^F8 z8 |
[V:3]C8 z8 |
[V:4]A,8 z8 |
[V:1]E8 A8- |
[V:2]z8 E8 |
[V:3]C16- |
[V:4]z8 ^F,8 |
[V:1]A4 D4 G4 F4 |
[V:2]D16 |
[V:3]C4 =B,8 B,4 |
[V:4]G,16 |
[V:1]E4 cdec A=BcA FGAF |
[V:2]C4 C4 C4 z4 |
[V:3]C4 G,4 A,4 z4 |
[V:4]A,4 E,4 F,4 z4 |
[V:1]G,8 d8 |
[V:2]z2G2 G2FE D2F2 F2ED |
[V:3]z2E2 E2DC =B,2D2 D2CB, |
[V:4]G,4 z4 G,4 z4 |
[V:1]c8- c2f2 f2ed |
[V:2]E2G2 G2FE A4 =B4 |
[V:3]C2E2 E2DC F4 D4 |
[V:4]C,4 z12 |
[V:1]c8- c2f2 f2ed |
[V:2]c2G2 G2FE A4 =B4 |
[V:3]E2E2 E2DC F4 D4 |
[V:4]C,4 z12 |
[V:1]c16 |
[V:2]c2G2 G2FE G2B2 B2AG |
[V:3]E2E2 E2DC E2G2 G2FE |
[V:4]C,4 z12 |
[V:1]c12 f4 |
[V:2]A2A2 A2A2 A2A2 A2A2 |
[V:3]F2F2 F2F2 F2F2 F2F2 |
[V:4]F,2F,2 F,2F,2 F,2F,2 F,2F,2 |
[V:1]f2_e2 e8 dd'3 |
[V:2]c16- |
[V:3]A16- |
[V:4]^F,16- |
[V:1]d'c'ba g^f_ed d2e4 dc |
[V:2]c12 D4 |
[V:3]A12 A,4 |
[V:4]F,12 ^F,4 |
[V:1]B2AG G4 z8 |
[V:2]D4 z2_E2 EDCB, A,2B,C |
[V:3]B,4 z12 |
[V:4]G,4 z2C2 B,2A,G, ^F,2D,2 |
[V:1]d8 g8 |
[V:2]B,4 z12 |
[V:3]zG^FG DGB,D G,A,B,C DEFG |
[V:4]G,4 z12 |
[V:1]g2^f2 f4 z8 |
[V:2]A8 c8 |
[V:3]D4 z4 ^F,4 z4 |
[V:4]zD^CD A,D^F,A, D,E,F,G, A,=B,=CD |
[V:1]d8 f8 |
[V:2]c2=B2 B4 z8 |
[V:3]zG^FG DG=B,D G,A,B,C DE=FG |
[V:4]G,4 z12 |
[V:1]f2e2 e4 z8 |
[V:2]G8 B8 |
[V:3]C4 z4 E,4 z4 |
[V:4]zC=B,C G,CE,G, C,D,E,F, G,A,_B,C |
[V:1]z16 |
[V:2]B2A2 A4 z8 |
[V:3]c8 _e8 |
[V:4]F,F,E,F, C,F,A,,C, F,,G,,A,,B,, C,D,_E,F, |
[V:1]f8 b8 |
[V:2]zdcd BdFB D_EFG ABcd |
[V:3]_e2d2 d8 d4 |
[V:4]B,,B,A,B, F,B,D,F, B,,C,D,_E, F,G,A,B, |
[V:1]b2a2 a8 f'4 |
[V:2]_e16 |
[V:3]c16 |
[V:4]F,16 |
[V:1]f'_e'd'c' bagf f2^f2 g2_e2 |
[V:2]c12 c4 |
[V:3]F12 A,4 |
[V:4]A,12 A,4 |
[V:1]dfgf bfgf d'fgf f'fgf |
[V:2]d2d2 d2d2 d2d2 d2d2 |
[V:3]B,2F2 F2F2 F2F2 F2F2 |
[V:4]B,2B,2 B,2B,2 B,2B,2 B,2B,2 |
[V:1]_e'2d'2 c'2b2 a2g2 f2_e2 |
[V:2]c16 |
[V:3]F16 |
[V:4]A,16 |
[V:1]dfgf bfgf d'fgf f'fgf |
[V:2]z2d2 z2d2 z2d2 z2d2 |
[V:3]z2F2 z2F2 z2F2 z2F2 |
[V:4]z2B,2 z2B,2 z2B,2 z2B,2 |
[V:1]_e'f'd'e' c'd'bc' abga fg_ef |
[V:2]c16 |
[V:3]F16 |
[V:4]A,16 |
[V:1]d2f4 b4 d'4 f'2 |
[V:2]d_efe decd Bfdc BcAB |
[V:3]F4 z6 F_E D2D2 |
[V:4]B,2B,2 B,2B,2 B,2B,2 B,2B,2 |
[V:1]f'2D2 D2D2 D4 ^G,4 |
[V:2]^G2G2 G2G2 G4 D4 |
[V:3]D2F2 F2F2 F4 D,4 |
[V:4]B,2B,,2 B,,2B,,2 B,,2B,,2 B,,2B,,2 |
[V:1]A,A^C^c EeGg BbAa A^c'ec' |
[V:2]^C4 z4 ^c4 z4 |
[V:3]E,4 z4 E4 z4 |
[V:4]A,,4 z4 G,4 z4 |
[V:1]d'2>a2 f'2>d'2 a'6 g'f' |
[V:2]DdFd AdFd DdFd AdFd |
[V:3]F4 z4 F4 z4 |
[V:4]F,4 z4 F,4 z4 |
[V:1]e'4 g'4 b'6 ^G,2 |
[V:2]EdGd BdGd EdGd Bd^Gd |
[V:3]G4 z4 G,4 z2^G,2 |
[V:4]G,4 z4 G,4 z2^G,2 |
[V:1]A,8 e8 |
[V:2]A2A2 A2GF E2G2 G2FE |
[V:3]A,2F2 F2ED ^C2E2 E2FG |
[V:4]A,4 z4 A,4 z4 |
[V:1]d2d2 ^cded a4 gfed |
[V:2]^G8 D8 |
[V:3]F16- |
[V:4]B,8 A,8 |
[V:1]d2d2 ^cded a4 gfed |
[V:2]^G8 D8 |
[V:3]F16- |
[V:4]B,8 A,8 |
[V:1]d2d2 ^cded d'4 z4 |
[V:2]^G8 z8 |
[V:3]F8 z8 |
[V:4]B,8 z8 |
[V:1]F8 =B8- |
[V:2]z8 F8 |
[V:3]D16- |
[V:4]z8 ^G,8 |
[V:1]B4 E4 A8- |
[V:2]E12 _E4 |
[V:3]D4 ^C4 =C8- |
[V:4]A,12 ^F,4 |
[V:1]A4 D4 G8- |
[V:2]D12 _D4 |
[V:3]C4 =B,4 _B,8- |
[V:4]G,12 E,4 |
[V:1]G4 C4 F8 |
[V:2]C12 =B,4 |
[V:3]B,4 A,8 G,4 |
[V:4]F,8 D,8 |
[V:1]c8- c2f2 f2ed |
[V:2]C2G2 G2FE A4 =B4 |
[V:3]G,2E2 E2DC F4 D4 |
[V:4]C,4 z12 |
[V:1]c8- c2f2 f2ed |
[V:2]c2G2 G2FE A4 =B4 |
[V:3]E2E2 E2DC F4 D4 |
[V:4]C,4 z12 |
[V:1]c16 |
[V:2]c2G2 G2FE G2B2 B2AG |
[V:3]E2E2 E2DC E2G2 G2FE |
[V:4]C,4 z12 |
[V:1]c12 f4 |
[V:2]A2A2 A2A2 A2A2 A2A2 |
[V:3]F2F2 F2F2 F2F2 F2F2 |
[V:4]F,2F,2 F,2F,2 F,2F,2 F,2F,2 |
[V:1]f2e2 e8 cc'3 |
[V:2]B16- |
[V:3]G16- |
[V:4]C,16 |
[V:1]c'bag fedc c2^c2 d3B |
[V:2]B12 B3 G|
[V:3]G12 G4 |
[V:4]E,12 E,4 |
[V:1]A2GF F4 z8 |
[V:2]F4 z2D2 C2B,A, G,2A,B, |
[V:3]C4 z2F,2 F,4 C,2E,2 |
[V:4]F,4 z2B,2 A,2G,F, E,2C,2 |
[V:1]c12- cag f|
[V:2]A,2A2 A2A2 A2A2 A2A2 |
[V:3]F,2F2 F2F2 F2F2 F2F2 |
[V:4]F,,2F,2 F,2F,2 F,2F,2 F,2F,2 |
[V:1]f2e2 e8- ebag |
[V:2]B4 BABA B8 |
[V:3]G4 G^FGF G6 E2 |
[V:4]C,8 C=B,CB, C4 |
[V:1]g2f2 f8- fc'ba |
[V:2]A4 A^GAG A8 |
[V:3]F4 FEFE F6 ^F2 |
[V:4]C8 C=B,CB, C4 |
[V:1]ag^fg g8- gbag |
[V:2]B4 BABA B8 |
[V:3]G4 G^FGF G6 E2 |
[V:4]C8 C=B,CB, C4 |
[V:1]gfef f4 fefe f4 |
[V:2]_A4 AGAG A8 |
[V:3]F16 |
[V:4]_D4 DCDC D4 DCDC |
[V:1]fefe fg_ag fgfg f4 |
[V:2]_AGAG A4 =B4 BcBc |
[V:3]F8 _A8- |
[V:4]_D8 =D4 DEDE |
[V:1]gfgf f4 fefe f_agf |
[V:2]=B4 BcBc B6 f2 |
[V:3]A8 _A6 =B,2 |
[V:4]D4 DEDE D8 |
[V:1]c'16- |
[V:2]eccc ccec fccc gccc |
[V:3]C4 z2B2 A4 E4 |
[V:4]C4 z12 |
[V:1]c'16- |
[V:2]accc ccec fccc gccc |
[V:3]F4 z12 |
[V:4]z4 >B,4 A,4 E,4 |
[V:1]c'12 b4 |
[V:2]_accc ccec fccc gccc |
[V:3]z4 >B4 _A4 E4 |
[V:4]F,4 z12 |
[V:1]_a16- |
[V:2]f16- |
[V:3]F16- |
[V:4]F,C,C,C, C,_A,,A,,A,, A,,F,,F,,F,, F,,_D,,D,,D,, |
[V:1]a2_ag agag a4 F4 |
[V:2]f2=B2 B2B2 B8 |
[V:3]F2F2 F2F2 F8 |
[V:4]_D,,12 _D,4 |
[V:1]EcGe cgec' EcGe cgec' |
[V:2]c2c2 c2c2 c2c2 c2c2 |
[V:3]G2E2 E2E2 E2E2 E2E2 |
[V:4]C,2C,2 C,2C,2 B,2B,2 B,2B,2 |
[V:1]Afca fc'ff' f'8 |
[V:2]c8 FfAf cfAf |
[V:3]F2F2 F2F2 F4 z4 |
[V:4]A,2A,2 A,2A,2 A,4 z4 |
[V:1]d'8 b4 f4 |
[V:2]FfBf dfBf GfBf dfBf |
[V:3]B,4 z4 B,4 z4 |
[V:4]B,4 z4 B,4 z4 |
[V:1]c8 g8 |
[V:2]A2c2 c2BA G2B2 B2AG |
[V:3]C2A2 A2GF E2G2 G2FE |
[V:4]C4 z4 C4 z4 |
[V:1]f2f2 efgf c'4 bagf |
[V:2]=B8 F8 |
[V:3]F8 A8 |
[V:4]D8 C8 |
[V:1]f2f2 efgf c'4 bagf |
[V:2]=B8 F8 |
[V:3]F8 A8 |
[V:4]D8 C8 |
[V:1]f2f2 efgf f'4 z4 |
[V:2]=B8 z8 |
[V:3]F8 z8 |
[V:4]D8 z8 |
[V:1]A8 d8- |
[V:2]z8 A8 |
[V:3]F16- |
[V:4]z8 =B,8 |
[V:1]d4 G4 c4 B4 |
[V:2]G16 |
[V:3]F4 E8 E4 |
[V:4]C16 |
[V:1]A4 fgaf defd BcdB |
[V:2]F4 F4 F4 z4 |
[V:3]F4 C4 D4 z4 |
[V:4]D4 A,4 B,4 z4 |
[V:1]C8 g8 |
[V:2]z2c2 c2BA G2B2 B2AG |
[V:3]z2A2 A2GF E2G2 G2FE |
[V:4]C4 z4 C,4 z4 |
[V:1]f8- f2b2 b2ag |
[V:2]A2c2 c2BA d4 e4 |
[V:3]F2A2 A2GF B4 G4 |
[V:4]F,4 z12 |
[V:1]f8- f2dB AGFE |
[V:2]f2c2 c2BA d6 B,2 |
[V:3]A2A2 A2GF B6 G,2 |
[V:4]F,4 z12 |
[V:1]E8 FAGB AcBd |
[V:2]B,8 A,2z6 |
[V:3]G,8 A,2z6 |
[V:4]F,,8- F,,2z6 |
[V:1]E8 F2z6 |]
[V:2]B,8 A,2z6 |]
[V:3]G,8 A,2z6 |]
[V:4]F,,8- F,,2z6 |]

